X: 3
T: Maggie West's Waltz
C: Mairearad Green
O: Achiltibuie, Scotland
N: Named for the composer's grandmother
S: https://thesession.org/tunes/9559
D: http://www.youtube.com/watch?v=4NEedmlXtT8
R: waltz
M: 3/4
L: 1/8
K: G
D GA |\
"G"B3B AG | "C"EG3 GA | "G"B>d d>g (3gab | "D"a4 ga |\
"C"ge3 ge | "G"ed2 B (3BAG |1 "Am"A3 B A>G | "D"A3 :|2 "D"A3 B GF | "G"G3 |]
|: d (3BAG |\
"G"AG2 d (3BAG | "G"AG2 d (3BAG | "G"A>B d>g (3gab |\
"D"a4 ga | "C"ge3 ge | "G"ed2 B (3BAG |1 "Am"A3 B A>G | "D"A3 :|2 "D"A3 B GF | "G"G3 |]
